!!!!SEGMENT: 074-1c-LW-9-012.krn
!!!COM: Fryderyk Chopin
!!!OTL: Meine Freuden
!!!OPS: op. 74
!!!PTL: 17 | POLISH SONGS | BY | WITWICKI, ZALESKI, MICKIEWICZ, ETC, | FOR | A SOPRANO OR TENOR VOICE | WITH ACCOMPANIMENT FOR THE | Pianoforte
!!!PPR: Stanley Lucas, Weber & Co.
!!!PPP: London
!!!AGN: Song
!!!NIFC-rismID: BRAK
!!!NIFC-shelfmark: PL-Wbfc 6139/n
!!!OMD: ALLEGRETTO. M. M. [quarter] = 120.
**kern	**kern	**dynam	**kern	**text	**dynam
*part2	*part2	*part2	*part1	*	*part1
*staff3	*staff2	*	*staff1	*	*
*I"PIANO.	*	*	*	*	*
*clefF4	*clefG2	*	*clefG2	*	*
*k[b-e-a-d-g-c-]	*k[b-e-a-d-g-c-]	*	*k[b-e-a-d-g-c-]	*	*
*g-:	*g-:	*	*g-:	*	*
*M3/4	*M3/4	*	*M3/4	*	*
*	*	*	*	*	*
=1	=1	=1	=1	=1	=1
*^	*	*	*	*	*
!	!	!	!LO:DY:rj	!	!	!
4rd	2.F	4dd-	mf	2.rdd	.	.
4d- 4A-	.	4.ee-	.	.	.	.
4d- 4A-	.	.	.	.	.	.
.	.	8dd-	.	.	.	.
=2	=2	=2	=2	=2	=2	=2
4rd	2.E-	4dd-	.	2.rdd	.	.
4c- 4G-	.	4.cc-	.	.	.	.
4c- 4G-	.	.	.	.	.	.
.	.	8b-	.	.	.	.
=3	=3	=3	=3	=3	=3	=3
4rd	2.D-	4b-\	<	2.rdd	.	.
4f-X 4B- 4G-	.	4a-	.	.	.	.
4f- 4B- 4G-	.	4g-	[	.	.	.
*v	*v	*	*	*	*	*
=4	=4	=4	=4	=4	=4
4C-	2.gg-	>	2.rdd	.	.
4e- 4c- 4G-	.	.	.	.	.
4e- 4c- 4G-	.	]	.	.	.
=5	=5	=5	=5	=5	=5
*^	*	*	*	*	*
4rc	2.C-	8a-L	.	2.rdd	.	.
.	.	8b-J	.	.	.	.
4e-- 4G-	.	4cc-	.	.	.	.
4e-- 4G-	.	4cc-	.	.	.	.
=6	=6	=6	=6	=6	=6	=6
*	*	*	*	*	*	*
!	!	!LO:TX:t=P:note-head-side tuplet number:problem	!	!	!	!
4rc	2.D-	12cc-L	.	2.rdd	.	.
.	.	12dd-	.	.	.	.
.	.	12cc-J	.	.	.	.
4d- 4B- 4G-	.	8b-L	.	.	.	.
.	.	8g-J	.	.	.	.
4d- 4B- 4G-	.	4b-\	.	.	.	.
!!LO:LB:g=original
=7	=7	=7	=7	=7	=7	=7
!	!	!LO:TX:t=P:note-head-side tuplet number:problem	!	!	!	!
4rc	2.D-	(>12b-L\>	.	2.rdd	.	.
.	.	12cc-	.	.	.	.
.	.	12b-J)	.	.	.	.
4c- 4F	.	8a-L	.	.	.	.
.	.	8d-J	.	.	.	.
4c- 4F	.	4a-	.	.	.	.
*v	*v	*	*	*	*	*
=8	=8	=8	=8	=8	=8
4GG-\	4g-	.	2.rdd	.	.
4B-/ 4D-/	4r	.	.	.	.
4r	[>4d-	.	.	.	.
=9	=9	=9	=9	=9	=9
*	*	*	*	*^	*
4GG-\	2d-]	.	4b-	Thee,	Seh'	.
2D-	.	.	4cc-	my	ich,	.
.	[4d- 4B-< 4G-<	.	4b-	be-	-Ge	.
=10	=10	=10	=10	=10	=10	=10
4GG-\	2d-]	.	2a-	-lov-	-lieb-	.
2D-	.	.	.	.	.	.
.	[4d- 4c- 4A-< 4F<	.	4d-	-ed,	-te,	.
=11	=11	=11	=11	=11	=11	=11
4GG-\	2d-]	.	8d-	see	hei-	.
!	!	!	!	!	!	!LO:HP:a
.	.	.	8f	I	-ter	<
2D-	.	.	4a-	bright	dich	.
.	[4d- 4c- 4A-< 4F<	.	4cc-	and	und	[
=12	=12	=12	=12	=12	=12	=12
!	!LO:TX:b:i:t=poco cre.	!	!	!	!	!LO:HP:a
4GG-\	2d-]	.	2ee-	joy-	fröh-	>
2D-	.	.	.	.	.	.
.	[4d- 4B-< 4G-<	.	4dd-	-ous,	-lich,	]
!!LO:LB:g=original
=13	=13	=13	=13	=13	=13	=13
4GGn\	2d-]	.	4b-	Tremb-	zittr'	.
2D-	.	.	4an	-ling	ich:	.
.	>[4d- 4B-< 4F-X<	.	4b-	I	man	.
=14	=14	=14	=14	=14	=14	=14
4AA-\	2d-]	.	2dd-	fear	könn-	.
2D-	.	.	.	.	.	.
.	[4d- 4c- 4F<	.	8cc-	lest	-te	.
.	.	.	8b-	thy	den	.
=15	=15	=15	=15	=15	=15	=15
4DD-/	2d-]	.	(>\4.b-	bright-	Froh-	.
2D-	.	.	.	.	.	.
.	.	.	()>/8a-X)	.	.	.
.	4f [>4d- 4c-	.	8b-^>\	-ness	-sinn	.
.	.	.	8a-	I	dir	.
=16	=16	=16	=16	=16	=16	=16
4GG-	2d-]	>	2g-	dark-	stö-	.
2D-\	.	.	.	.	.	.
.	4g- [>4d- 4B-	.	4d-	-en;	-ren;	.
=17	=17	=17	=17	=17	=17	=17
4GG-\	2d-]	p	4b-	When	fängst	.
.	.	.	<8qdd-/	.	.	.
2D-	.	.	4cc-	thou	an	.
.	[4d- 4B-< 4G-<	.	4b-	dost	zu	.
!!LO:LB:g=original
=18	=18	=18	=18	=18	=18	=18
4GG-\	2d-]	.	2a-	speak,	plau-	.
2D-	.	.	.	.	.	.
.	[4d- 4c- 4A-< 4F<	.	4d-	-dern,	.	.
=19	=19	=19	=19	=19	=19	=19
4GG-\	2d-]	.	4.d-	mak-	das	.
2D-	.	.	.	.	.	.
.	.	.	8f	-est	macht	.
.	[4d- 4c- 4A-< 4F<	.	8a-	me	mich	.
.	.	.	8cc-	so	so	.
=20	=20	=20	=20	=20	=20	=20
4GG-\	2d-]	.	2ee-	hap-	se-	.
2D-	.	.	.	.	.	.
.	[4d- 4B-< 4G-<	.	4dd-	-lig,	.	.
=21	=21	=21	=21	=21	=21	=21
4GGn\	2d-]	.	4b-	That,	sitz'	.
2D-	.	.	4.an/	I	mäus-	.
.	[4d- 4B-< 4F-X<	.	.	.	.	.
.	.	.	8b-	am	-chen-	.
=22	=22	=22	=22	=22	=22	=22
4AA-\	2d-]	.	4.cc-	still,	-still,	.
2D-	.	.	.	.	.	.
.	.	.	8f	and	dich	.
.	[4d- 4c- 4Fn<	.	4f	will	nicht	.
!!LO:LB:g=original
=23	=23	=23	=23	=23	=23	=23
!	!	!	!LO:TX:t=P:note-head-side tuplet number:problem	!	!	!
4DD-	2d-]	.	(>12cc-L	not	zu	.
.	.	.	12dd-	.	.	.
.	.	.	12cc-J)	.	.	.
(<2D-	.	.	4b-	in-	un-	.
.	4d- 4F<	.	4cc-	-ter-	-ter-	.
=24	=24	=24	=24	=24	=24	=24
2BB-\)	4r	.	2dd-	-rupt	-bre-	.
.	4d- 4G-<	.	.	.	.	.
4GGn\	4d- 4F-X<	.	4b-	-thee.	-chen,	.
=25	=25	=25	=25	=25	=25	=25
2.AA-\	4r	.	4cc-	Would	wüns-	.
.	4d- 4F<	.	4b-	that	-che:	.
.	4dn 4F<	.	4a-	thy	nur	.
=26	=26	=26	=26	=26	=26	=26
2.AA-\	4r	.	4b-\	lips,	du,	.
.	4e- 4cn 4A-< 4G-<	.	4a-	thine	ach	.
.	4e- 4c 4A-< 4G-<	.	8a-L	a-	nur	.
.	.	.	8anJ	śmiem	.	.
=27	=27	=27	=27	=27	=27	=27
2.D-	4r	.	(>/8b-L	-lone,	du	.
.	.	.	8a-XJ	.	.	.
.	4d- 4c-X 4F<	.	4g-	might	mö-	.
.	[4d- 4c- 4F<	.	8fL	ad-	-gest	.
.	.	.	8e-J	.	.	.
=28	=28	=28	=28	=28	=28	=28
4GG-\	2d-]	.	2e-	-dress	spre-	.
2D-	.	.	.	.	.	.
.	4d- 4B-< 4G-<	.	4d-)	me	-chen,	.
!!LO:PB:g=original
=29	=29	=29	=29	=29	=29	=29
2.G-	4r	.	4b--	And	und	.
.	4e-- 4B--	.	4b--	I	ich	.
.	4e-- 4B--	.	4b--	might	will	.
=30	=30	=30	=30	=30	=30	=30
!	!	!	!	!	!	!LO:HP:a
2.F	4r	.	2b--	heark-	hö-	>]
.	4d- 4A-	.	.	.	.	.
.	4d- 4A-	.	4a-	-en,	-ren,	.
=31	=31	=31	=31	=31	=31	=31
!	!	!	!	!	!	!LO:HP:a
2.G-	4r	.	8b--	I	hö-	<
.	.	.	8b--	might	-ren,	.
!	!	!	!	!	!	!LO:HP:a
.	4e-- 4B--	.	4cc-	e-	im-	[>
.	4e-- 4B--	.	4b--	-ver	-mer	]
=32	=32	=32	=32	=32	=32	=32
2.F	4r	.	2b--^	heark-	hö-	.
.	4d- 4A-	.	.	.	.	.
.	4d- 4A-	.	4a-	-en,	-ren,	.
=33	=33	=33	=33	=33	=33	=33
2.F-X	4r	.	(4a--'	And	und	.
.	4d-- 4A--	.	4a--'	I	ich	.
.	4d-- 4A--	.	4a--')	might	will	.
=34	=34	=34	=34	=34	=34	=34
2.E-	4r	.	2a--	heark-	hö-	.
.	4c- 4G-	.	.	.	.	.
.	4c- 4G-	.	4g-	-en,	-ren,	.
!!LO:LB:g=original
=35	=35	=35	=35	=35	=35	=35
*	*	*^	*	*	*	*
4E--	4c- 4G-	.	.	8g-	I	im-	<
.	.	<	.	.	.	.	.
!	!	!	!	!	!	!	!LO:DY:a
.	.	.	.	(8g-	might	-mer,	[
4E-- 4EE--	4c- 4G-	.	.	4aa-	e-	im-	.
4E-- 4EE--	4c- 4G-	.	.	4gg-)	-ver	-mer	.
=36	=36	=36	=36	=36	=36	=36	=36
!	!	!	!LO:DY:rj	!	!	!	!
2.D- 2.DD-	[2.d- 2.c- 2.F<	.	sf	(4ff	heark-	hö-	.
.	.	.	.	8ee-'L	.	.	.
.	.	.	.	8dd-'J	.	.	.
.	.	.	.	4cc-)	-en.	-ren.	.
*	*	*v	*v	*	*	*	*
=37	=37	=37	=37	=37	=37	=37
4GG-\	2d-]	p	4b-	But	Doch	.
2D-	.	.	4cc-	when	wenn	.
.	[4d- 4B-< 4G-<	.	4b-	thou	die	.
=38	=38	=38	=38	=38	=38	=38
4GG-\	2d-]	.	2a-	speak-	Wor-	.
2D-	.	.	.	.	.	.
.	[4d- 4c- 4A-< 4F<	.	4d-	-est,	-te	.
=39	=39	=39	=39	=39	=39	=39
!	!LO:TX:b:i:t=poco 	!	!	!	!	!
4GG-\	2d-]	.	8d-	when	feu-	.
.	.	.	8f	thou	-rig	.
2D-	.	<	8a-	art	dich	.
.	.	.	8r	.	.	.
!	!	!	!	!	!	!LO:DY:a
.	[4d- 4c- 4A-< 4F<	.	4cc-	so	er-	.
!!LO:LB:g=original
=40	=40	=40	=40	=40	=40	=40
4GG-\	2d-]	.	2ee-	ea-	re-	.
2D-	.	.	.	.	.	.
.	[4d- 4B-< 4G-<	.	4dd-	-ger,	gen,	.
=41	=41	=41	=41	=41	=41	=41
4GGn\	2d-]	.	4b-\	Thy	Lip-	.
2D-	.	.	4an	lips	-pen	.
.	[4d- 4B-< 4F-X<	.	4b-\	and	und	.
=42	=42	=42	=42	=42	=42	=42
4AA-\	2d-]	.	2dd-	cheeks	Wan	.
2D-	.	.	.	.	.	.
.	[4d- 4c- 4F<	.	8cc-	soon	gen	.
.	.	.	8b-	are	hald	.
=43	=43	=43	=43	=43	=43	=43
4DD-	2d-]	.	(>\4.b-	rud-	rö-	.
2D-	.	.	.	.	.	.
.	.	.	8a-)	.	.	.
.	4f [>4d- 4c-	.	8b-\	-dy	-then	.
.	.	.	8a-	and	sich	.
=44	=44	=44	=44	=44	=44	=44
4GG-	2d-]	>	2g-	glow-	müs-	.
2D-	.	.	.	.	.	.
.	4g- [>4d- 4B-	.	4d-	-ing;	-sen,	.
!!LO:LB:g=original
=45	=45	=45	=45	=45	=45	=45
4GG-\	2d-]	p	4b-	Then	wenn	.
.	.	.	<8qdd-/	.	.	.
2D-	.	.	4.cc-	thy	sich	.
.	[4d- 4B-< 4G-<	.	.	.	.	.
.	.	.	8b-	bright	dein	.
=46	=46	=46	=46	=46	=46	=46
4GG-\	2d-]	.	2a-	beau-	Blick	.
2D-	.	.	.	.	.	.
.	[4d- 4c- 4A-< 4F<	.	4d-	-ty	tief	.
=47	=47	=47	=47	=47	=47	=47
4GG-\	2d-]	.	8d-	fills	in	.
!	!	!	!	!	!	!LO:HP:a
.	.	.	8f	my	mein	<
2D-	.	.	4a-	heart	Herze	.
.	[>4d- 4c- 4A-< 4F<	.	4cc-	with	.	[
.	.	.	.	.	.	.
=48	=48	=48	=48	=48	=48	=48
4GG-\	2d-]	.	2ee-	-long-	sen-	.
2D-	.	.	.	.	.	.
.	4d- 4B-< 4G-<	.	8dd-L	.	.	.
.	.	.	8b-J	-ing,	-ket,	.
=49	=49	=49	=49	=49	=49	=49
2.C-\	4r	.	4a-^>	Ah!	ach,	.
.	4e- 4A-< 4E-<	.	4r	.	.	.
.	4e- 4A-< 4E-<	.	4r	.	.	.
=50	=50	=50	=50	=50	=50	=50
2.BB-\	4r	.	4r	.	.	.
.	4dn 4B-< 4F<	.	4r	.	.	.
.	4d 4B-< 4F<	.	4b-	Ah!	ja	.
!!LO:LB:g=original
=51	=51	=51	=51	=51	=51	=51
!	!	!	!LO:TX:i:a:t=stretto.	!	!	!
2.C-\	4r	.	(>2b-^	then,...	dann,	.
.	4e- 4A-< 4E-<	.	.	.	.	.
.	4e- 4A-< 4E-<	.	4a-)	...	...	.
=52	=52	=52	=52	=52	=52	=52
2.BB-\	4r	.	4r	.	.	.
.	4dn 4B-< 4F<	.	4r	.	.	.
.	4d 4B-< 4F<	.	4b-	Ah!	ja	.
=53	=53	=53	=53	=53	=53	=53
[<2.C-\	4r	.	[2b.-^	then,...	dann,...	.
.	4B-< 4E-<	.	.	.	.	.
.	4B-< 4E-<	.	.	.	.	.
=54	=54	=54	=54	=54	=54	=54
2.C-]	4B-< 4E-<	.	2b-]	...	...	.
.	4B-< 4E-<	.	.	.	.	.
.	4A-< 4E-<	.	4a-	be-	Ge-	.
=55	=55	=55	=55	=55	=55	=55
[<2.C-\	4r	.	[2b.-^	-lov-	-lieb-	.
.	4B-< 4E-<	.	.	.	.	.
.	4B-< 4E-<	.	.	.	.	.
=56	=56	=56	=56	=56	=56	=56
2.C-]	4B-< 4E-<	.	2b-]	.	.	.
.	4B-< 4E-<	.	.	.	.	.
.	4A-< 4E-<	.	4a-	-ed,	-te,	.
!!LO:PB:g=original
=57	=57	=57	=57	=57	=57	=57
.	.	.	8qb-/	.	.	.
2.C-\	4r	.	4a-	then,	dann,	.
.	4A-< 4E-<	.	4gn	my	o	.
.	4A-< 4E-<	.	4a-	be-	Ge-	.
=58	=58	=58	=58	=58	=58	=58
!	!	!	!LO:TX:t=P:cres: powinno być nad górną pięciolinią:problem	!	!	!LO:HP:a
2.D-	4r	<	4cc-	-lov-	-lieb-	<
.	4B-< 4F-X<	.	4b-	-ed,	-te,	.
!	!LO:TX:b:i:t=e	!	!LO:TX:i:a:t=e	!	!	!
.	.	.	.	.	.	.
.	4B-< 4F-<	.	4b-	ah!	dann	.
=59	=59	=59	=59	=59	=59	=59
!	!LO:TX:i:b:t=sempre	!	!LO:TX:a:i:t=sempre	!	!	!
2.D-	4r	.	4b-	then	möcht'	.
.	4B-< 4F-X<	.	4an/	I	ich	.
!	!LO:TX:i:b:t=più	!	!LO:TX:a:i:t=più	!	!	!
.	.	.	.	.	.	.
.	4B-< 4F-<	.	4b-	for-	dich	.
=60	=60	=60	=60	=60	=60	=60
!LO:TX:a:i:t=accel&colon;_:dur=3whq:ext=ud:problem:text with line extensions	!	!	!LO:TX:a:i:t=accel&colon;_:dur=3whq:ext=ud:problem:text with line extensions	!	!	!
2.E-	4r	.	2dd-	-bear	stö-	.
.	4c- 4G-	.	.	.	.	.
.	4c- 4G-	.	4cc-	not,	-ren,	.
=61	=61	=61	=61	=61	=61	=61
!LO:N:vis=2.	!	!	!	!	!	!
2E-	4r	.	4cc-	Tremb-	zit-	.
.	4c- 4G-	.	4cc-	-ling	-tre	.
4En	4cn 4Gn	.	4ccn	with	vor	.
!!LO:LB:g=original
=62	=62	=62	=62	=62	=62	=62
2F	4r	.	4.dd-	rap-	Won-	.
.	4d- 4A-	.	.	.	.	.
.	.	.	8dd-	-ture,	-ne	.
4F#X	4dn 4An	.	4ddn	no	und	.
=63	=63	=63	=63	=63	=63	=63
2.Gn	4r	.	4ee-	long-	will	.
.	4dn 4B-	.	4ddn	-er	nicht	.
.	4e- 4B-	.	4ee-	I	mehr	.
=64	=64	=64	=64	=64	=64	=64
2G#X	4r	.	2een	heark-	hö-	.
.	4en 4Bn	.	.	.	.	.
4r	4r	.	4ee	-en,	-ren,	.
=65	=65	=65	=65	=65	=65	=65
!	!	!	!	!	!	!LO:DY:a:rj
!	!	!	!	!	!	!LO:HP:a
2.rF	2.rdd	.	[2.ff	Then...	dann...	ff>
=66	=66	=66	=66	=66	=66	=66
2.rF	2.rdd	.	2.ff_	...	...	]
=67	=67	=67	=67	=67	=67	=67
4A-X	4f 4d-X	.	2.ff_	...	...	.
4r	4r	.	.	.	.	.
4r	4r	.	.	.	.	.
!!LO:LB:g=original
=68	=68	=68	=68	=68	=68	=68
2.rF	2.rdd	.	4ff]	...	...	.
!	!	!	!LO:TX:i:a:t=rall&colon;	!	!	!
.	.	.	4ee-	I	möcht'	.
!	!	!	!LO:TX:a:i:t=poco	!	!	!
.	.	.	4dd-	must	ich	.
=69	=69	=69	=69	=69	=69	=69
!	!	!	!LO:TX:a:i:t=a poco.	!	!	!LO:DY:rj
2.AA-/	4r	.	[2.gg-	kiss...	küs-	f
!	!	!LO:DY:a	!	!	!	!
!	!LO:TX:b:i:t=rall&colon;	!	!	!	!	!
.	4e- 4G-	.	.	.	.	.
.	4e- 4G-	.	.	.	.	.
=70	=70	=70	=70	=70	=70	=70
!	!LO:TX:b:i:t=poco	!	!	!	!	!
2.BB-/	4r	.	4gg-]	...	...	.
!	!LO:TX:b:i:t=a poco.	!	!	!	!	!
.	4dn 4A-	.	4ff	thee,	-sen,	.
.	4d 4A-	.	4ff	but	nur	.
=71	=71	=71	=71	=71	=71	=71
!	!	!	!	!	!	!LO:HP:a
2.C-/	4r	.	[2.ff	kiss...	küs-	>
.	4e- 4G-	.	.	.	.	.
.	4e- 4G-	.	.	.	.	.
=72	=72	=72	=72	=72	=72	=72
2.Cn/	4r	.	4ff]	...	.	]
.	4e- 4An 4G-	.	4ee-	thee,	-sen,	.
.	4e- 4A 4G-	.	4ee-	but	nur	.
=73	=73	=73	=73	=73	=73	=73
2.D-	4r	.	(>>2ee-^	kiss...	küs-	.
.	4d- 4B- 4G-	.	.	.	.	.
.	4d- 4B- 4G-	.	4dd-	...	.	.
!!LO:LB:g=original
=74	=74	=74	=74	=74	=74	=74
2.D-	4r	.	2ee-	...	.	.
.	4d- 4B- 4Gn	.	.	.	.	.
.	4d- 4B- 4G	.	4dd-	...	.	.
=75	=75	=75	=75	=75	=75	=75
2.D-	4r	.	2ee-)	...	.	.
.	4d- 4c- 4A-	.	.	.	.	.
.	4d- 4c- 4A-	.	4f	thee	-sen,	.
=76	=76	=76	=76	=76	=76	=76
2.D-	4r	.	4r	.	.	.
.	4d- 4c- 4A-	.	4r	.	.	.
!	!LO:TX:i:b:t=a tempo.	!LO:DY:a	!LO:TX:a:i:t=a tempo.	!	!	!
.	4d- 4c- 4A-	.	4f	but	nur	.
=77	=77	=77	=77	=77	=77	=77
!	!	!	!	!	!	!LO:DY:a
2.GG-	4r	.	4a-	kiss	küs-	.
.	4d- 4B- 4G-	.	4g-	thee.	-sen!	.
.	4d-	.	4r	.	.	.
*	*	*	*	*v	*v	*
=78	=78	=78	=78	=78	=78
*^	*	*	*	*	*
4rd	2.F	4dd-	mf	2.rdd	.	.
4d- 4A-	.	4.ee-	.	.	.	.
4d- 4A-	.	.	.	.	.	.
.	.	8dd-	.	.	.	.
=79	=79	=79	=79	=79	=79	=79
4rB	2.E-	4dd-	.	2.rdd	.	.
4c- 4G-	.	4.cc-	.	.	.	.
4c- 4G-	.	.	.	.	.	.
.	.	8b-	.	.	.	.
!!LO:LB:g=original
=80	=80	=80	=80	=80	=80	=80
4rB	2.D-	4b-\	<	2.rdd	.	.
4f-X 4B- 4G-	.	4a-	.	.	.	.
4f- 4B- 4G-	.	4g-	[	.	.	.
*v	*v	*	*	*	*	*
=81	=81	=81	=81	=81	=81
4C-	2.gg-	>	2.rdd	.	.
4e- 4c- 4G-	.	.	.	.	.
4e- 4c- 4G-	.	]	.	.	.
=82	=82	=82	=82	=82	=82
*^	*	*	*	*	*
4rd	2.C-	8a-L	.	2.rdd	.	.
.	.	8b-J	.	.	.	.
4e-- 4G-	.	4cc-	.	.	.	.
4e-- 4G-	.	4cc-	.	.	.	.
=83	=83	=83	=83	=83	=83	=83
!	!	!LO:TX:t=P:note-head-side tuplet number:problem	!	!	!	!
4rf	2.D-	(12cc-L	.	2.rdd	.	.
.	.	12dd-	.	.	.	.
.	.	12cc-J)	.	.	.	.
4d- 4B- 4G-	.	8b-L	.	.	.	.
.	.	8g-J	.	.	.	.
4d- 4B- 4G-	.	4b-	.	.	.	.
=84	=84	=84	=84	=84	=84	=84
!	!	!LO:TX:t=P:note-head-side tuplet number:problem	!	!	!	!
4rf	2.D-	(12b-L	.	2.rdd	.	.
.	.	12cc-	.	.	.	.
.	.	12b-J)	.	.	.	.
4c- 4F	.	8a-L	.	.	.	.
.	.	8d-J	.	.	.	.
4c- 4F	.	4a-	.	.	.	.
*v	*v	*	*	*	*	*
=85	=85	=85	=85	=85	=85
4GG-	4g-	.	2.rdd	.	.
4B- 4D-	4r	.	.	.	.
4r	4r	.	.	.	.
==	==	==	==	==	==
*-	*-	*-	*-	*-	*-
!!title: @{OTL}; @{OPS} @{ONM} publisher: @{PPR}
!!!ENC: Jędrzej Mróz
!!!END: 2020-01-29
!!!EED: 
!!!EST: revision finished 
!!!RDF**kern: > = above
!!!RDF**kern: < = below
!!!system-decoration: (s1){(s2,s3)}
!!!RDF**dynam: < = "cres:", 'fontstyle="italic"
!!!RDF**dynam: > = "dim:", 'fontstyle="italic"
